svg/file/folder_locked_2_fill.svg

<?xml version="1.0" encoding="UTF-8"?>
<svg width="24px" height="24px" viewBox="0 0 24 24" version="1.1" xmlns="http://www.w3.org/2000/svg" xmlns:xlink="http://www.w3.org/1999/xlink">
    <title>folder_locked_2_fill</title>
    <g id="页面-1" stroke="none" stroke-width="1" fill="none" fill-rule="evenodd">
        <g id="File" transform="translate(-864.000000, -336.000000)" fill-rule="nonzero">
            <g id="folder_locked_2_fill" transform="translate(864.000000, 336.000000)">
                 <path d="M24,0 L24,24 L0,24 L0,0 L24,0 Z M12.5934901,23.257841 L12.5819402,23.2595131 L12.5108777,23.2950439 L12.4918791,23.2987469 L12.4918791,23.2987469 L12.4767152,23.2950439 L12.4056548,23.2595131 C12.3958229,23.2563662 12.3870493,23.2590235 12.3821421,23.2649074 L12.3780323,23.275831 L12.360941,23.7031097 L12.3658947,23.7234994 L12.3769048,23.7357139 L12.4804777,23.8096931 L12.4953491,23.8136134 L12.4953491,23.8136134 L12.5071152,23.8096931 L12.6106902,23.7357139 L12.6232938,23.7196733 L12.6232938,23.7196733 L12.6266527,23.7031097 L12.609561,23.275831 C12.6075724,23.2657013 12.6010112,23.2592993 12.5934901,23.257841 L12.5934901,23.257841 Z M12.8583906,23.1452862 L12.8445485,23.1473072 L12.6598443,23.2396597 L12.6498822,23.2499052 L12.6498822,23.2499052 L12.6471943,23.2611114 L12.6650943,23.6906389 L12.6699349,23.7034178 L12.6699349,23.7034178 L12.678386,23.7104931 L12.8793402,23.8032389 C12.8914285,23.8068999 12.9022333,23.8029875 12.9078286,23.7952264 L12.9118235,23.7811639 L12.8776777,23.1665331 C12.8752882,23.1545897 12.8674102,23.1470016 12.8583906,23.1452862 L12.8583906,23.1452862 Z M12.1430473,23.1473072 C12.1332178,23.1423925 12.1221763,23.1452606 12.1156365,23.1525954 L12.1099173,23.1665331 L12.0757714,23.7811639 C12.0751323,23.7926639 12.0828099,23.8018602 12.0926481,23.8045676 L12.108256,23.8032389 L12.3092106,23.7104931 L12.3186497,23.7024347 L12.3186497,23.7024347 L12.3225043,23.6906389 L12.340401,23.2611114 L12.337245,23.2485176 L12.337245,23.2485176 L12.3277531,23.2396597 L12.1430473,23.1473072 Z" id="MingCute" fill-rule="nonzero"></path>
                <path d="M18.5,13 C19.825472,13 20.9100378,14.0315469 20.9946823,15.3356256 L21,15.5 L21,16 C21.51285,16 21.9355092,16.386027 21.9932725,16.8833761 L22,17 L22,21 C22,21.51285 21.613973,21.9355092 21.1166239,21.9932725 L21,22 L16,22 C15.48715,22 15.0644908,21.613973 15.0067275,21.1166239 L15,21 L15,17 C15,16.48715 15.386027,16.0644908 15.8833761,16.0067275 L16,16 L16,15.5 C16,14.1193 17.1193,13 18.5,13 Z M9.51938,3 C10.1269,3 10.7016,3.27618 11.0811,3.75061 L12.4806,5.5 L20,5.5 C21.1046,5.5 22,6.39543 22,7.5 L22,12.6713 C21.175,11.6518 19.9136,11 18.5,11 C16.2868,11 14.4467,12.5978 14.0704,14.7028 C13.4159,15.2531 13,16.078 13,17 L13,21 L4,21 C2.89543,21 2,20.1046 2,19 L2,5 C2,3.89543 2.89543,3 4,3 L9.51938,3 Z M18.5,15 C18.2239,15 18,15.2239 18,15.5 L18,16 L19,16 L19,15.5 C19,15.2239 18.7761,15 18.5,15 Z" id="形状" fill="#09244B"></path>
            </g>
        </g>
    </g>
</svg>

<svg xmlns="http://www.w3.org/2000/svg" width="24" height="24"><g fill="none" fill-rule="nonzero"><path d="M24 0v24H0V0h24ZM12.593 23.258l-.011.002-.071.035-.02.004-.014-.004-.071-.035c-.01-.004-.019-.001-.024.005l-.004.01-.017.428.005.02.01.013.104.074.015.004.012-.004.104-.074.012-.016.004-.017-.017-.427c-.002-.01-.009-.017-.017-.018Zm.265-.113-.013.002-.185.093-.01.01-.003.011.018.43.005.012.008.007.201.093c.012.004.023 0 .029-.008l.004-.014-.034-.614c-.003-.012-.01-.02-.02-.022Zm-.715.002a.023.023 0 0 0-.027.006l-.006.014-.034.614c0 .012.007.02.017.024l.015-.002.201-.093.01-.008.004-.011.017-.43-.003-.012-.01-.01-.184-.092Z"/><path fill="#09244B" d="M18.5 13a2.5 2.5 0 0 1 2.495 2.336L21 15.5v.5a1 1 0 0 1 .993.883L22 17v4a1 1 0 0 1-.883.993L21 22h-5a1 1 0 0 1-.993-.883L15 21v-4a1 1 0 0 1 .883-.993L16 16v-.5a2.5 2.5 0 0 1 2.5-2.5ZM9.52 3a2 2 0 0 1 1.561.75l1.4 1.75H20a2 2 0 0 1 2 2v5.171a4.501 4.501 0 0 0-7.93 2.031A2.994 2.994 0 0 0 13 17v4H4a2 2 0 0 1-2-2V5a2 2 0 0 1 2-2h5.52Zm8.98 12a.5.5 0 0 0-.5.5v.5h1v-.5a.5.5 0 0 0-.5-.5Z"/></g></svg>
